Infinity-Plasma-Themes/Infinity-Plasma/icons/device.svg

<?xml version="1.0" encoding="UTF-8" standalone="no"?>
<svg
   width="32"
   height="32"
   version="1.1"
   id="svg12"
   sodipodi:docname="device.svg"
   inkscape:version="1.1.2 (0a00cf5339, 2022-02-04)"
   xmlns:inkscape="http://www.inkscape.org/namespaces/inkscape"
   xmlns:sodipodi="http://sodipodi.sourceforge.net/DTD/sodipodi-0.dtd"
   xmlns:xlink="http://www.w3.org/1999/xlink"
   xmlns="http://www.w3.org/2000/svg"
   xmlns:svg="http://www.w3.org/2000/svg"
   xmlns:rdf="http://www.w3.org/1999/02/22-rdf-syntax-ns#"
   xmlns:cc="http://creativecommons.org/ns#"
   xmlns:dc="http://purl.org/dc/elements/1.1/">
  <metadata
     id="metadata18">
    <rdf:RDF>
      <cc:Work
         rdf:about="">
        <dc:format>image/svg+xml</dc:format>
        <dc:type
           rdf:resource="http://purl.org/dc/dcmitype/StillImage" />
      </cc:Work>
    </rdf:RDF>
  </metadata>
  <defs
     id="defs16">
    <linearGradient
       inkscape:collect="always"
       id="linearGradient847">
      <stop
         style="stop-color:#08a19d;stop-opacity:1"
         offset="0"
         id="stop843" />
      <stop
         style="stop-color:#3f9eff;stop-opacity:1"
         offset="1"
         id="stop845" />
    </linearGradient>
    <linearGradient
       inkscape:collect="always"
       xlink:href="#linearGradient847"
       id="linearGradient849"
       x1="14.459929"
       y1="14.296231"
       x2="26.47576"
       y2="28.166992"
       gradientUnits="userSpaceOnUse" />
    <linearGradient
       inkscape:collect="always"
       xlink:href="#linearGradient847"
       id="linearGradient857"
       x1="11.172814"
       y1="10.582847"
       x2="17.917845"
       y2="18.893112"
       gradientUnits="userSpaceOnUse" />
  </defs>
  <sodipodi:namedview
     pagecolor="#ffffff"
     bordercolor="#000000"
     borderopacity="1"
     objecttolerance="10"
     gridtolerance="10"
     guidetolerance="10"
     inkscape:pageopacity="0"
     inkscape:pageshadow="2"
     inkscape:window-width="1920"
     inkscape:window-height="1013"
     id="namedview14"
     showgrid="false"
     inkscape:zoom="6.9384853"
     inkscape:cx="29.329168"
     inkscape:cy="13.475564"
     inkscape:window-x="0"
     inkscape:window-y="0"
     inkscape:window-maximized="1"
     inkscape:current-layer="svg12"
     inkscape:pagecheckerboard="0"
     inkscape:showpageshadow="false"
     inkscape:lockguides="true" />
  <g
     id="22-22-device-notifier"
     transform="translate(32.000001,10.000001)">
    <rect
       style="opacity:0.001"
       width="22"
       height="22"
       x="0"
       y="0"
       id="rect2" />
    <path
       style="fill:url(#linearGradient857);fill-opacity:1"
       d="M 6,3 C 4.892,3 4,3.892 4,5 v 12 c 0,1.108 0.892,2 2,2 h 10 c 1.108,0 2,-0.892 2,-2 V 5 C 18,3.892 17.108,3 16,3 Z m 5,3 4,5 H 7 Z m -4,6 h 8 v 2 H 7 Z"
       id="path4" />
  </g>
  <g
     id="device-notifier">
    <g
       id="g836">
      <rect
         style="opacity:0.00100002"
         width="32"
         height="32"
         x="0"
         y="0"
         id="rect7" />
      <path
         style="fill:url(#linearGradient849);fill-opacity:1"
         d="M 8,4 C 6.3379999,4 5,5.3379999 5,7 v 18 c 0,1.662 1.3379999,3 3,3 h 15 c 1.662,0 3,-1.338 3,-3 V 7 C 26,5.3379999 24.662,4 23,4 Z m 7.5,5 5.5,7 H 10 Z M 10,18 h 11 v 3 H 10 Z"
         id="path9" />
    </g>
  </g>
</svg>

<?xml version="1.0" encoding="UTF-8" standalone="no"?>
<svg
   xmlns:dc="http://purl.org/dc/elements/1.1/"
   xmlns:cc="http://creativecommons.org/ns#"
   xmlns:rdf="http://www.w3.org/1999/02/22-rdf-syntax-ns#"
   xmlns:svg="http://www.w3.org/2000/svg"
   xmlns="http://www.w3.org/2000/svg"
   xmlns:xlink="http://www.w3.org/1999/xlink"
   xmlns:sodipodi="http://sodipodi.sourceforge.net/DTD/sodipodi-0.dtd"
   xmlns:inkscape="http://www.inkscape.org/namespaces/inkscape"
   width="32"
   height="32"
   version="1.1"
   id="svg12"
   sodipodi:docname="device.svg"
   inkscape:version="1.0.1 (3bc2e813f5, 2020-09-07)">
  <metadata
     id="metadata18">
    <rdf:RDF>
      <cc:Work
         rdf:about="">
        <dc:format>image/svg+xml</dc:format>
        <dc:type
           rdf:resource="http://purl.org/dc/dcmitype/StillImage" />
      </cc:Work>
    </rdf:RDF>
  </metadata>
  <defs
     id="defs16">
    <linearGradient
       inkscape:collect="always"
       id="linearGradient847">
      <stop
         style="stop-color:#08a19d;stop-opacity:1"
         offset="0"
         id="stop843" />
      <stop
         style="stop-color:#3f9eff;stop-opacity:1"
         offset="1"
         id="stop845" />
    </linearGradient>
    <linearGradient
       inkscape:collect="always"
       xlink:href="#linearGradient847"
       id="linearGradient849"
       x1="14.459929"
       y1="14.296231"
       x2="26.47576"
       y2="28.166992"
       gradientUnits="userSpaceOnUse" />
    <linearGradient
       inkscape:collect="always"
       xlink:href="#linearGradient847"
       id="linearGradient857"
       x1="11.172814"
       y1="10.582847"
       x2="17.917845"
       y2="18.893112"
       gradientUnits="userSpaceOnUse" />
  </defs>
  <sodipodi:namedview
     pagecolor="#ffffff"
     bordercolor="#666666"
     borderopacity="1"
     objecttolerance="10"
     gridtolerance="10"
     guidetolerance="10"
     inkscape:pageopacity="0"
     inkscape:pageshadow="2"
     inkscape:window-width="1920"
     inkscape:window-height="1013"
     id="namedview14"
     showgrid="false"
     inkscape:zoom="9.8125"
     inkscape:cx="44.804086"
     inkscape:cy="15.509619"
     inkscape:window-x="0"
     inkscape:window-y="0"
     inkscape:window-maximized="1"
     inkscape:current-layer="svg12" />
  <g
     id="22-22-device-notifier"
     transform="translate(32.000001,10.000001)">
    <rect
       style="opacity:0.001"
       width="22"
       height="22"
       x="0"
       y="0"
       id="rect2" />
    <path
       style="fill:url(#linearGradient857);fill-opacity:1"
       d="M 6,3 C 4.892,3 4,3.892 4,5 v 12 c 0,1.108 0.892,2 2,2 h 10 c 1.108,0 2,-0.892 2,-2 V 5 C 18,3.892 17.108,3 16,3 Z m 5,3 4,5 H 7 Z m -4,6 h 8 v 2 H 7 Z"
       id="path4" />
  </g>
  <g
     id="device-notifier">
    <rect
       style="opacity:0.001"
       width="32"
       height="32"
       x="0"
       y="0"
       id="rect7" />
    <path
       style="fill:url(#linearGradient849);fill-opacity:1"
       d="M 8 4 C 6.3379999 4 5 5.3379999 5 7 L 5 25 C 5 26.662 6.3379999 28 8 28 L 23 28 C 24.662 28 26 26.662 26 25 L 26 7 C 26 5.3379999 24.662 4 23 4 L 8 4 z M 15.5 9 L 21 16 L 10 16 L 15.5 9 z M 10 18 L 21 18 L 21 21 L 10 21 L 10 18 z"
       id="path9" />
  </g>
</svg>
